!!!!SEGMENT: pl-gd--ee-1638--002-006_marenzio-luca--motettorum-pro-festis-totius-anni-in-epiphania-domini-tribus-miraculis.krn
!!!cenid: 15xx:1009
!!!COM: Marenzio, Luca
!!!COM-rismID: pe30003955
!!!CDT: ~1553-1599/08/22
!!!CNT: Italian
!!!GTL: Motettorum pro festis totius anni
!!!OTL: In Epiphania Domini/Tribus miraculis
!!!OMV: 006
!!!PDT: 1588
!!!AGN:
!!!YEC: Copyright 2022 Narodowy Instytut Fryderyka Chopina (https://polishscores.org)
!!!YEM: License CC-BY-4.0 (https://creativecommons.org/licenses/by/4.0)
!!!SMS-siglum: PL-GD
!!!SMS-shelfmark: Ee 1638
!!!SMS-shelfwork: 002-006 G
!!!SMS-variant:
!!!SMS-altvar:
!!!NIFC-rismSourceID: 1001202747
!!!NIFC-rismChildID: 990039238
!!!NIFC-islandoraID: pl-gd:57883
!!!URL-pdf-islandora: https://repozytorium.nifc.pl/islandora/object/pl-gd%3A57883/datastream/PDF/view
!!!URL-scan: https://polish.musicsources.pl/pl/lokalizacje/galeria/klocki-introligatorskie/655 @EN{Scan on Polish Music Sources Website} @PL{Skany w portalu Dziedzictwo Muzyki Polskiej w otwartym dostępie}
!!!IIIF: https://repozytorium.nifc.pl/islandora/object/pl-gd%3A57883/datastream/IIIF/view
!!!ONB-nifc: UWAGA: Cantus: s. 619 (lewa), Altus: s. 467 (lewa), Tenor: s. 315 (lewa), Bassus: s. 163 (lewa)
!!!AIN: 1 alto 1 bass 1 soprn 1 tenor
!!!key:
**kern	**text	**kern	**text	**kern	**text	**kern	**text
*part4	*	*part3	*	*part2	*	*part1	*
*staff4	*	*staff3	*	*staff2	*	*staff1	*
*I"BASSO	*	*I"TENORE	*	*I"ALTO	*	*I"CANTO	*
*I'B.	*	*I'T.	*	*I'A.	*	*I'C.	*
*Ibass	*	*Itenor	*	*Ialto	*	*Isoprn	*
*ICvox	*	*ICvox	*	*ICvox	*	*ICvox	*
*clefF4	*	*clefC4	*	*clefC3	*	*clefC1	*
*k[]	*	*k[]	*	*k[]	*	*k[]	*
*d:	*	*d:	*	*d:	*	*d:	*
*M2/1	*	*M2/1	*	*M2/1	*	*M2/1	*
*met(C|)	*	*met(C|)	*	*met(C|)	*	*met(C|)	*
=1-	=1-	=1-	=1-	=1-	=1-	=1-	=1-
*xywh-#163:1015,599,3513,764	*	*xywh-#315:1012,403,3517,921	*	*xywh-#467:1021,554,3419,765	*	*xywh-#619:1102,535,3414,804	*
!LO:TX:b:i:t=TRibus miraculis.	!	!	!	!	!	!	!
!LO:TX:a:i:t=In Epiphania Domini.	!	!LO:TX:a:i:t=In Epiphania Domini.	!	!LO:TX:a:i:t=In Epiphania Domini.	!	!LO:TX:a:i:t=In Epiphania Domini.	!
0r	.	2.D/	TRi-	2.d\	TRi-	00a	TRi-
.	.	4E/	.	8c\	.	.	.
.	.	.	.	8B/	.	.	.
.	.	4F/	.	4A/	.	.	.
.	.	4G/	.	4B/	.	.	.
.	.	4A/	.	4c/	.	.	.
.	.	4B\	.	4d\	.	.	.
=2-	=2-	=2-	=2-	=2-	=2-	=2-	=2-
0r	.	4c\	.	4e\	.	.	.
.	.	4A/	.	4c/	.	.	.
.	.	2.d\	.	2.f\	.	.	.
.	.	8c\	.	8e\	.	.	.
.	.	8B\	.	8d\	.	.	.
.	.	2A/	.	2c/	.	.	.
=3-	=3-	=3-	=3-	=3-	=3-	=3-	=3-
0r	.	2B\	-bus	2d\	-bus	1g	-bus
.	.	2.c\	mi-	2e\	mi-	.	.
.	.	.	.	4A/	-ra-	2.a\	mi-
.	.	4B\	.	4B/	.	.	.
.	.	2.A/	.	4c/	.	.	.
.	.	.	.	4d\	.	4b\	.
=4-	=4-	=4-	=4-	=4-	=4-	=4-	=4-
0r	.	.	.	2.e\	.	2cc\	.
.	.	8G#X/	.	.	.	.	.
.	.	8F#X/	.	.	.	.	.
!	!	!LO:SIC:v:t=custos A	!	!	!	!	!
.	.	2G#X/	.	.	.	2.b\	-ra-
*	*	*xywh-#315:1089,1096,3414,775	*	*	*	*	*
!	!	!LO:LB:g=original	!	!	!	!	!
.	.	.	.	4d\	.	.	.
.	.	2.A/	-ra-	2.c/	.	.	.
.	.	.	.	.	.	4a\	.
.	.	.	.	.	.	2.a\	.
!	!	!	!	!LO:SIC:v:t=custos A	!	!	!
.	.	4B\	.	4B/	.	.	.
*	*	*	*	*xywh-#467:1056,1208,3360,682	*	*	*
!	!	!	!	!LO:LB:g=original	!	!	!
=5-	=5-	=5-	=5-	=5-	=5-	=5-	=5-
0r	.	4c\	.	4A/	.	.	.
.	.	4d\	.	4B/	.	4g/	.
.	.	4e\	.	4c/	.	2.g/	.
.	.	4B\	.	4d\	.	.	.
.	.	2c\	.	4e\	.	.	.
.	.	.	.	4A/	.	4a\	.
.	.	2d\	-cu-	1d\	.	1f/	.
=6-	=6-	=6-	=6-	=6-	=6-	=6-	=6-
0r	.	0A	-lis	.	.	.	.
.	.	.	.	4c/	.	4e/	.
.	.	.	.	4B/	.	4d/	.
.	.	.	.	2c#X/	.	2e/	.
.	.	.	.	2c#/	-cu-	2e/	-cu-
=7-	=7-	=7-	=7-	=7-	=7-	=7-	=7-
1D	Or-	2r	.	2.d\	-lis	2d/	-lis
.	.	2A/	Or-	.	.	2f/	Or-
.	.	.	.	8cny/	.	.	.
.	.	.	.	8B/	.	.	.
2.D/	-na-	2.d\	-na-	1A	.	2.f/	-na-
4AA/	-tum	4c#X\	-tum	.	.	4e/	-tum
=8-	=8-	=8-	=8-	=8-	=8-	=8-	=8-
2D/	di-	2d\	di-	2r	.	2f/	di-
2C/	-em	2e\	-em	2c/	Or-	2g/	-em
!	!	!	!	!	!	!LO:SIC:v:t=custos g	!
0F	ſanc-	0A	ſanc-	2.c/	-na-	0a	ſan-
*	*	*	*	*	*	*xywh-#619:1172,1249,3379,650	*
!	!	!	!	!	!	!LO:LB:g=original	!
.	.	.	.	4B/	-tum	.	.
=9-	=9-	=9-	=9-	=9-	=9-	=9-	=9-
.	.	.	.	2c/	di-	.	.
.	.	.	.	2d\	-em	.	.
1C	-tu(m)	2.cny\	-tum	1e	ſan-	1g	-ctu(m)
.	.	4B\	.	.	.	.	.
=10-	=10-	=10-	=10-	=10-	=10-	=10-	=10-
2D/	co-	1A	.	1d	-ctu(m)	2f/	co-
2D/	-li-	.	.	.	.	2f/	-li-
4AA/	-mus	1.A	co-	2c/	co-	0.e	-mus
4BB/	.	.	.	.	.	.	.
4C/	.	.	.	2c/	-li-	.	.
!LO:SIC:v:t=custos E	!	!	!	!	!	!	!
4D/	.	.	.	.	.	.	.
*xywh-#163:1092,1293,3421,587	*	*	*	*	*	*	*
!LO:LB:g=original	!	!	!	!	!	!	!
=11-	=11-	=11-	=11-	=11-	=11-	=11-	=11-
!	!	!	!	!LO:SIC:v:t=custos d	!	!	!
0E	.	.	.	0B	-mus	.	.
*	*	*	*	*xywh-#467:1050,1737,3366,712	*	*	*
!	!	!	!	!LO:LB:g=original	!	!	!
.	.	4G#X/	.	.	.	.	.
.	.	4F#X/	.	.	.	.	.
!	!	!LO:SIC:v:t=custos G#	!	!	!	!	!
.	.	2G#X/	.	.	.	.	.
*	*	*xywh-#315:1075,1664,3420,740	*	*	*	*	*
!	!	!LO:LB:g=original	!	!	!	!	!
.	.	2Gny/	-li-	.	.	.	.
=12-	=12-	=12-	=12-	=12-	=12-	=12-	=12-
1.D	ho-	2A/	-mus	1.d	ho-	1.f#X	ho-
.	.	1A	ho-	.	.	.	.
2GG/	-di-	2B\	-di-	2d\	-di-	2g/	-di-
=13-	=13-	=13-	=13-	=13-	=13-	=13-	=13-
0GG	-e	0B	-e	1d	-e	1g	-e
.	.	.	.	2r	.	2.dd\	ſtel-
.	.	.	.	2.g\	ſtel-	.	.
.	.	.	.	.	.	4cc\	.
=14-	=14-	=14-	=14-	=14-	=14-	=14-	=14-
0r	.	0r	.	.	.	4b\	.
.	.	.	.	4f\	.	4a\	.
.	.	.	.	4e\	.	2b\	.
.	.	.	.	4d\	.	.	.
.	.	.	.	2e\	.	2g/	-la
.	.	.	.	2c/	-la	1cc\	Ma-
=15-	=15-	=15-	=15-	=15-	=15-	=15-	=15-
0r	.	0r	.	2f\	Ma-	.	.
.	.	.	.	2f\	-gos	2a\	-gos
.	.	.	.	2.e\	du-	2.g/	du-
.	.	.	.	4f\	-xit	4a\	-xit
=16-	=16-	=16-	=16-	=16-	=16-	=16-	=16-
0r	.	0r	.	2e\	ad	2g/	ad
.	.	.	.	2d\	pr(ae)-	2fny/	pr(ae)-
.	.	.	.	4c/	-ſe-	4e/	-ſe-
.	.	.	.	4B/	.	4d/	.
.	.	.	.	4c/	.	4e/	.
.	.	.	.	4d\	.	4f/	.
=17-	=17-	=17-	=17-	=17-	=17-	=17-	=17-
0r	.	0r	.	4e\	.	4g/	.
.	.	.	.	4d\	.	4f/	.
!	!	!	!	!	!	!LO:SIC:v:t=custos e	!
.	.	.	.	1d	.	4f/	.
*	*	*	*	*	*	*xywh-#619:1193,1802,3330,601	*
!	!	!	!	!	!	!LO:LB:g=original	!
.	.	.	.	.	.	8e/	.
.	.	.	.	.	.	8d/	.
.	.	.	.	.	.	2.e/	.
.	.	.	.	2c#X/	-pi-	.	.
.	.	.	.	.	.	4e/	-pi-
=18-	=18-	=18-	=18-	=18-	=18-	=18-	=18-
!	!	!	!	!LO:SIC:v:t=custos d	!	!	!
1r	.	1r	.	1d	-um	1d	-um
*	*	*	*	*xywh-#467:1080,2314,3331,706	*	*	*
!	!	!	!	!LO:LB:g=original	!	!	!
1.D	ho-	1.A	ho-	1.d	ho-	1.f#X	ho-
=19-	=19-	=19-	=19-	=19-	=19-	=19-	=19-
.	.	.	.	.	.	.	.
2GG/	-di-	2B\	-di-	2d\	-di-	2g/	-di-
1GG	-e	1B	-e	0d	-e	0g	-e
=20-	=20-	=20-	=20-	=20-	=20-	=20-	=20-
2.G\	vi-	2r	.	.	.	.	.
.	.	4G/	vi-	.	.	.	.
8F\	.	4A/	.	.	.	.	.
8E\	.	.	.	.	.	.	.
4D/	.	4B\	.	1r	.	1r	.
4C/	.	2c\	.	.	.	.	.
2D/	.	.	.	.	.	.	.
.	.	4B\	.	.	.	.	.
=21-	=21-	=21-	=21-	=21-	=21-	=21-	=21-
4C/	-num	1c	-num	2r	.	2.g/	vi-
4D/	.	.	.	.	.	.	.
4E\	.	.	.	4G/	vi-	.	.
4F\	.	.	.	4A/	.	8fny/	.
.	.	.	.	.	.	8e/	.
1G	.	1r	.	4B/	.	4d/	.
.	.	.	.	2cny/	.	4c/	.
.	.	.	.	.	.	2d/	.
.	.	.	.	4B/	.	.	.
=22-	=22-	=22-	=22-	=22-	=22-	=22-	=22-
2r	.	2.c\	vi-	0c	-num	1e	-num
4C/	vi-	.	.	.	.	.	.
4D/	.	8B\	.	.	.	.	.
.	.	8A\	.	.	.	.	.
4E\	.	4G/	.	.	.	1r	.
!LO:SIC:v:t=custos E	!	!	!	!	!	!	!
2F\	.	4Fny/	.	.	.	.	.
*xywh-#163:1135,1839,3378,616	*	*	*	*	*	*	*
!LO:LB:g=original	!	!	!	!	!	!	!
.	.	2G/	.	.	.	.	.
4E\	.	.	.	.	.	.	.
=23-	=23-	=23-	=23-	=23-	=23-	=23-	=23-
1F	-num	4F/	-num	2r	.	2.cc\	vi-
!	!	!LO:SIC:v:t=custos A	!	!	!	!	!
.	.	4G/	.	.	.	.	.
*	*	*xywh-#315:1068,2204,3407,761	*	*	*	*	*
!	!	!LO:LB:g=original	!	!	!	!	!
.	.	4A/	.	4c/	vi-	.	.
.	.	4B\	.	4d\	.	8b\	.
.	.	.	.	.	.	8a\	.
1r	.	1c	.	4e\	.	4g/	.
.	.	.	.	2f\	.	4f/	.
.	.	.	.	.	.	2g/	.
.	.	.	.	4e\	.	.	.
=24-	=24-	=24-	=24-	=24-	=24-	=24-	=24-
2r	.	2r	.	2f\	-nu(m)	2a\	-nu(m)
2F\	ex	2A/	ex	2c/	ex	2a\	ex
1F	a-	1c	a-	1f	a-	1a	a-
=25-	=25-	=25-	=25-	=25-	=25-	=25-	=25-
2D/	-qua	2d\	-qua	2f\	-qua	2a\	-qua
!	!	!	!	!	!	!LO:SIC:v:t=custos g	!
1G	fac-	1B	fac-	1d	fac-	1g	fa-
*	*	*	*	*	*	*xywh-#619:1193,2319,3337,650	*
!	!	!	!	!	!	!LO:LB:g=original	!
2E\	-tum	2c#X\	-tum	2e\	-tum	2g/	-ctum
=26-	=26-	=26-	=26-	=26-	=26-	=26-	=26-
2D/	eſt	2d\	eſt	1A	eſt	1f#X	eſt
2D/	ad	2A/	ad	.	.	.	.
4G\	nu-	4B\	nu-	1r	.	1r	.
4F\	.	4A\	.	.	.	.	.
4G\	.	4B\	.	.	.	.	.
4A\	.	4cny\	.	.	.	.	.
=27-	=27-	=27-	=27-	=27-	=27-	=27-	=27-
2G\	.	2B\	.	2r	.	2r	.
2F#X\	-pti-	2A/	-pti-	2d\	ad	2a\	ad
1G	-as	1G	-as	4d\	nu-	4b\	nu-
!	!	!	!	!LO:SIC:v:t=custos d	!	!	!
.	.	.	.	4c\	.	4a\	.
*	*	*	*	*xywh-#467:974,2856,3419,665	*	*	*
!	!	!	!	!LO:LB:g=original	!	!	!
.	.	.	.	4d\	.	4b\	.
.	.	.	.	4e\	.	4cc\	.
=28-	=28-	=28-	=28-	=28-	=28-	=28-	=28-
2r	.	2r	.	2d\	.	2b\	.
2D/	ad	2d\	ad	2f#X\	-pti-	2a\	-pti-
4GG/	nu-	4d\	nu-	1g	-as	1g	-as
4AA/	.	4c\	.	.	.	.	.
4BB/	.	4B\	.	.	.	.	.
4C/	.	4A/	.	.	.	.	.
=29-	=29-	=29-	=29-	=29-	=29-	=29-	=29-
2BB/	.	2G/	.	2r	.	2r	.
!LO:SIC:v:t=custos GG	!	!LO:SIC:v:t=custos G	!	!	!	!	!
2AA/	-pti-	2F#X/	-pti-	2c/	ad	2a\	ad
*xywh-#163:1163,2363,3343,651	*	*xywh-#315:1082,2758,3372,734	*	*	*	*	*
!LO:LB:g=original	!	!LO:LB:g=original	!	!	!	!	!
0.GG	-as	0.G	-as	4B/	nu-	4dd\	nu-
.	.	.	.	4A/	.	4cc\	.
.	.	.	.	4B/	.	4dd\	.
.	.	.	.	4c/	.	4ee\	.
=30-	=30-	=30-	=30-	=30-	=30-	=30-	=30-
.	.	.	.	2B/	.	2dd\	.
.	.	.	.	2e\	-pti-	1cc	.
.	.	.	.	1d	-as	.	.
.	.	.	.	.	.	2b\	-pti-
=31-	=31-	=31-	=31-	=31-	=31-	=31-	=31-
1.C	ho-	1r	.	2r	.	2.cc\	-as
.	.	.	.	1e	ho-	.	.
.	.	.	.	.	.	4b\	.
.	.	1.c	ho-	.	.	1a	.
2D/	-di-	.	.	2f#X\	-di-	.	.
=32-	=32-	=32-	=32-	=32-	=32-	=32-	=32-
1E	-e	.	.	1g	-e	2r	.
.	.	2B\	-di-	.	.	1e	ho-
*	*	*lig	*	*	*	*	*
1r	.	1A	-e	1c	in	.	.
.	.	.	.	.	.	2f#X/	-di-
=33-	=33-	=33-	=33-	=33-	=33-	=33-	=33-
!	!	!	!	!	!	!LO:SIC:v:t=custos a	!
2r	.	1G	.	2d\	Ior-	1g	-e
*	*	*	*	*	*	*xywh-#619:1214,2872,3316,643	*
!	!	!	!	!	!	!LO:LB:g=original	!
1E	ho-	.	.	1e	-da-	.	.
*	*	*Xlig	*	*	*	*	*
.	.	1r	.	.	.	2r	.
2F#X\	-di-	.	.	4d\	.	2a\	in
.	.	.	.	4c/	.	.	.
=34-	=34-	=34-	=34-	=34-	=34-	=34-	=34-
0G	-e	0r	.	4B/	.	2b\	Ior-
.	.	.	.	4A/	.	.	.
.	.	.	.	4B/	.	4g/	-da-
!	!	!	!	!LO:SIC:v:t=custos d	!	!	!
.	.	.	.	4c/	.	4a\	.
*	*	*	*	*xywh-#467:991,3344,3413,747	*	*	*
!	!	!	!	!LO:LB:g=original	!	!	!
.	.	.	.	4d\	.	4b\	.
.	.	.	.	4e\	.	4cc\	.
.	.	.	.	4d\	.	4dd\	.
.	.	.	.	4e\	.	4g\	.
=35-	=35-	=35-	=35-	=35-	=35-	=35-	=35-
2r	.	0r	.	4fny\	.	4a\	.
.	.	.	.	4e\	.	4b\	.
*	*ij	*	*	*	*	*	*
1Fny	ho-	.	.	4d\	.	2.cc\	.
.	.	.	.	4c\	.	.	.
.	.	.	.	1d	.	.	.
.	.	.	.	.	.	8b\	.
.	.	.	.	.	.	8a\	.
2G\	-di-	.	.	.	.	2b\	.
=36-	=36-	=36-	=36-	=36-	=36-	=36-	=36-
1A	-e	2r	.	1c	-ne	4cc\	-ne
*	*Xij	*	*	*	*	*	*
.	.	.	.	.	.	4dd\	.
.	.	2A/	in	.	.	4ee\	.
.	.	.	.	.	.	4cc\	.
1G	in	2B\	Ior-	2.g\	in	0dd	.
.	.	4G/	-da-	.	.	.	.
.	.	4A/	.	8f\	.	.	.
.	.	.	.	8e\	.	.	.
=37-	=37-	=37-	=37-	=37-	=37-	=37-	=37-
2F\	Ior-	4B\	.	4d\	.	.	.
.	.	4c\	.	4e\	.	.	.
4D\	-da-	4d\	.	4f\	.	.	.
4E\	.	4G/	.	4g\	.	.	.
4F\	.	4A/	.	2f\	.	1r	.
4G\	.	4B\	.	.	.	.	.
4A\	.	2.c\	.	2e\	Ior-	.	.
4E\	.	.	.	.	.	.	.
=38-	=38-	=38-	=38-	=38-	=38-	=38-	=38-
2F\	.	.	.	1d	-da-	2r	.
.	.	8B\	.	.	.	.	.
.	.	8A\	.	.	.	.	.
2G\	.	2B\	.	.	.	1g	à
1C	-ne	4c\	-ne	1e	-ne	.	.
.	.	4d\	.	.	.	.	.
.	.	4e\	.	.	.	2a\	Io-
.	.	4c\	.	.	.	.	.
=39-	=39-	=39-	=39-	=39-	=39-	=39-	=39-
1.GG	à	1d	.	2r	.	1.b-X	-an-
.	.	.	.	2d\	à	.	.
!	!	!LO:SIC:v:t=custos D	!	!	!	!	!
.	.	1r	.	2e\	Io-	.	.
*	*	*xywh-#315:1013,3291,3427,761	*	*	*	*	*
!	!	!LO:LB:g=original	!	!	!	!	!
!LO:SIC:v:t=custos BB-	!	!	!	!	!	!	!
2AA/	Io-	.	.	1f\	-an-	4a\	.
*xywh-#163:1086,2887,3442,644	*	*	*	*	*	*	*
!LO:LB:g=original	!	!	!	!	!	!	!
.	.	.	.	.	.	4g\	.
=40-	=40-	=40-	=40-	=40-	=40-	=40-	=40-
1BB-X	-an-	1D	à	.	.	2fny/	.
!	!	!	!	!	!	!LO:SIC:v:t=custos a	!
.	.	.	.	4e\	.	2g/	.
*	*	*	*	*	*	*xywh-#619:1151,3432,3379,650	*
.	.	.	.	4d\	.	.	.
0.AA	-ne	1E	Io-	4c\	.	0.a	-ne
!	!	!	!	!LO:SIC:v:t=custos e	!	!	!
.	.	.	.	4d\	.	.	.
*	*	*	*	*xywh-#467:997,3915,3390,718	*	*	*
!	!	!	!	!LO:LB:g=original	!	!	!
.	.	.	.	2.e\	.	.	.
=41-	=41-	=41-	=41-	=41-	=41-	=41-	=41-
.	.	1Fny	-an-	.	.	.	.
.	.	.	.	4d\	.	.	.
.	.	.	.	2.d\	.	.	.
.	.	1E	-ne	.	.	.	.
.	.	.	.	8c#X/	.	.	.
.	.	.	.	8B/	.	.	.
.	.	.	.	2c#X/	.	.	.
=42-	=42-	=42-	=42-	=42-	=42-	=42-	=42-
0D	Chri-	1r	.	2.d\	-ne	0f#X	Chri-
.	.	.	.	8cny/	.	.	.
.	.	.	.	8B/	.	.	.
.	.	0d	Chri-	1A	Chri-	.	.
=43-	=43-	=43-	=43-	=43-	=43-	=43-	=43-
0G	-ſtus	.	.	1B	-ſtus	1g	-ſtus
.	.	1B	-ſtus	1d	bap-	1r	.
=44-	=44-	=44-	=44-	=44-	=44-	=44-	=44-
0r	.	2.c\	bap-	2.e\	-ti-	0g	Chri-
.	.	4c\	-ti-	4e\	-za-	.	.
.	.	2c\	-za-	2e\	-ri	.	.
.	.	2G/	-ri	2B/	vo-	.	.
=45-	=45-	=45-	=45-	=45-	=45-	=45-	=45-
1r	.	2A/	vo-	2c/	-lu-	1e	-ſtus
.	.	2A/	-lu-	2c/	-it	.	.
0G	Chri-	4G/	-it	2.d\	.	2.g/	bap-
.	.	4A/	.	.	.	.	.
.	.	4B\	.	.	.	.	.
.	.	4c\	.	4c/	.	4g/	-ti-
=46-	=46-	=46-	=46-	=46-	=46-	=46-	=46-
.	.	1d	.	0.B	.	2g/	-za-
.	.	.	.	.	.	2d/	-ri
1E	-ſtus	1r	.	.	.	2e/	vo-
.	.	.	.	.	.	2e/	-lu-
=47-	=47-	=47-	=47-	=47-	=47-	=47-	=47-
*	*	*	*ij	*	*	*	*
2.G\	bap-	0d	Chri-	.	.	2d/	-it
.	.	.	.	.	.	1g	vt
4G\	-ti-	.	.	.	.	.	.
2G\	-za-	.	.	1r	.	.	.
2D/	-ri	.	.	.	.	2f#X/	ſa-
=48-	=48-	=48-	=48-	=48-	=48-	=48-	=48-
2E\	vo-	1B	-ſtus	2r	.	1g	-lua-
2E\	-lu-	.	.	1g	vt	.	.
1D	-it	2.d\	bap-	.	.	1a	-ret
!	!	!	!	!LO:SIC:v:t=custos g	!	!	!
.	.	.	.	2f#X\	ſal-	.	.
*	*	*	*	*xywh-#467:1003,4445,3402,723	*	*	*
!	!	!	!	!LO:LB:g=original	!	!	!
!	!	!LO:SIC:v:t=custos d	!	!	!	!	!
.	.	4d\	-ti-	.	.	.	.
*	*	*xywh-#315:1006,3852,3434,768	*	*	*	*	*
!	!	!LO:LB:g=original	!	!	!	!	!
=49-	=49-	=49-	=49-	=49-	=49-	=49-	=49-
2G\	vt	2d\	-za-	2g\	-ua-	1d	nos
2F#X\	ſal-	2A/	-ri	2a\	-ret	.	.
1G	-ua-	2B\	vo-	2.d\	nos	2r	.
.	.	2B\	-lu-	.	.	1dd\	vt
.	.	.	.	4e\	.	.	.
=50-	=50-	=50-	=50-	=50-	=50-	=50-	=50-
1A	-ret	1A	-it	4fny\	.	.	.
*	*	*	*Xij	*	*	*	*
.	.	.	.	8e\	.	.	.
.	.	.	.	8d\	.	.	.
.	.	.	.	4e\	.	2cc#X\	ſal-
.	.	.	.	8d\	.	.	.
.	.	.	.	8e\	.	.	.
2.D/	nos	2r	.	1f	.	1dd	-ua-
.	.	1d\	vt	.	.	.	.
8C/	.	.	.	.	.	.	.
!LO:SIC:v:t=custos AA	!	!	!	!	!	!	!
8BBny/	.	.	.	.	.	.	.
*xywh-#163:1128,3461,3378,616	*	*	*	*	*	*	*
!LO:LB:g=original	!	!	!	!	!	!	!
=51-	=51-	=51-	=51-	=51-	=51-	=51-	=51-
1AA	.	.	.	2r	.	1ee	-ret
.	.	2c#X\	ſal-	2e\	vt	.	.
!	!	!	!	!	!	!LO:SIC:v:t=custos a	!
2r	.	1d	-ua-	1f	ſal-	1a	nos
*	*	*	*	*	*	*xywh-#619:1165,3998,3400,608	*
!	!	!	!	!	!	!LO:LB:g=original	!
1D\	vt	.	.	.	.	.	.
=52-	=52-	=52-	=52-	=52-	=52-	=52-	=52-
.	.	1e	-ret	2.a\	-ua-	2r	.
*	*	*	*	*	*	*	*ij
2C#X/	ſal-	.	.	.	.	1a	vt
.	.	.	.	4g\	.	.	.
1D	-ua-	1A	nos	4f\	.	.	.
.	.	.	.	4e\	.	.	.
.	.	.	.	1d\	.	2f#X/	ſal-
=53-	=53-	=53-	=53-	=53-	=53-	=53-	=53-
0E	-ret	0r	.	.	.	2g#X/	.
.	.	.	.	2c/	-ret	2.a\	-ua-
.	.	.	.	1B	nos	.	.
.	.	.	.	.	.	8g#\	.
.	.	.	.	.	.	8f#X/	.
.	.	.	.	.	.	2g#X/	-ret
=54-	=54-	=54-	=54-	=54-	=54-	=54-	=54-
2AA/	nos	2r	.	2r	.	1a	nos
*	*	*	*	*	*	*	*Xij
2A\	Al-	2cny\	Al-	2e\	Al-	.	.
2G\	-le-	2B\	-le-	2e\	-le-	1r	.
1A\	-lu-	1c\	-lu-	2e\	-lu-	.	.
=55-	=55-	=55-	=55-	=55-	=55-	=55-	=55-
.	.	.	.	1.e	-ia	1r	.
4G\	-ia	4B\	.	.	.	.	.
4Fny\	.	4A\	.	.	.	.	.
2E\	.	2G/	-ia	.	.	2r	.
!	!	!	!	!LO:SIC:v:t=custos c	!	!	!
*	*ij	*	*ij	*	*ij	*	*
2F\	Al-	2A/	Al-	2c/	Al-	2a\	Al-
*	*	*	*	*xywh-#467:4494,566,3531,771	*	*	*
!	!	!	!	!LO:LB:g=original	!	!	!
=56-	=56-	=56-	=56-	=56-	=56-	=56-	=56-
2E\	-le-	2c\	-le-	4c/	-le-	2gny/	-le-
.	.	.	.	4B/	.	.	.
1F	-lu-	2c\	-lu-	4A/	.	1a	-lu-
.	.	.	.	4G/	.	.	.
!	!	!LO:SIC:v:t=custos c	!	!	!	!	!
.	.	1c	-ia	2F/	.	.	.
*	*	*xywh-#315:930,4392,3504,796	*	*	*	*	*
!	!	!LO:LB:g=original	!	!	!	!	!
4E\	.	.	.	2G/	-lu-	4g/	-ia
4D\	.	.	.	.	.	4fny/	.
=57-	=57-	=57-	=57-	=57-	=57-	=57-	=57-
1Cny	-ia	2r	.	2c/	-ia	4e/	.
*	*Xij	*	*	*	*Xij	*	*
.	.	.	.	.	.	4f/	.
.	.	2c\	Al-	2e\	Al-	4g/	.
.	.	.	.	.	.	4a\	.
1r	.	2B\	-le-	2d\	-le-	0g	.
.	.	1c\	-lu-	1e\	-lu-	.	.
=58-	=58-	=58-	=58-	=58-	=58-	=58-	=58-
1r	.	.	.	.	.	.	.
.	.	4B\	.	4d\	.	.	.
.	.	4A\	.	4c/	.	.	.
2r	.	2G/	-ia	2B/	-ia	2r	.
!LO:SIC:v:t=custos B	!	!	!	!	!	!	!
*	*	*	*	*	*ij	*	*ij
2c\	Al-	2C/	Al-	2g\	Al-	2ee\	Al-
*xywh-#163:1107,3978,3421,687	*	*	*	*	*	*	*
!LO:LB:g=original	!	!	!	!	!	!	!
=59-	=59-	=59-	=59-	=59-	=59-	=59-	=59-
2B\	-le-	2G/	-le-	2g\	-le-	2dd\	-le-
1c	-lu-	2C/	-lu-	2g\	-lu-	1ee	-lu-
.	.	1G	-ia	1g	-ia	.	.
4B\	-ia	.	.	.	.	4dd\	.
4A\	.	.	.	.	.	4ccny\	.
=60-	=60-	=60-	=60-	=60-	=60-	=60-	=60-
!	!	!	!	!	!	!LO:SIC:v:t=custos cc	!
2G\	.	1r	.	2r	.	2bny\	.
*	*	*	*	*	*	*xywh-#619:1123,4523,3421,664	*
!	!	!	!	!	!	!LO:LB:g=original	!
*	*ij	*	*	*	*	*	*
2A\	Al-	.	.	2e\	Al-	2cc\	.
2G\	-le-	2r	.	2e\	-le-	2b\	.
1A\	-lu-	2c\	Al-	2e\	-lu-	1cc\	.
=61-	=61-	=61-	=61-	=61-	=61-	=61-	=61-
.	.	2A/	-le-	1.e	-ia	.	.
4G\	.	2B\	-lu-	.	.	4b\	.
4F\	.	.	.	.	.	4a\	.
2E\	-ia	1c	-ia	.	.	2g/	-ia
*	*	*	*	*	*	*	*Xij
2F\	Al-	.	.	2A/	Al-	2a\	Al-
=62-	=62-	=62-	=62-	=62-	=62-	=62-	=62-
2E\	-le-	2r	.	2c/	-le-	2g/	-le-
!	!	!	!	!LO:SIC:v:t=custos c	!	!	!
1F	-lu-	2A/	Al-	2c/	-lu-	1a	-lu-
*	*	*	*	*xywh-#467:4488,1255,3484,635	*	*	*
!	!	!	!	!LO:LB:g=original	!	!	!
.	.	2F/	-le-	1c	-ia	.	.
*	*	*	*	*	*Xij	*	*
4E\	.	2G/	-lu-	.	.	4g/	.
4D\	.	.	.	.	.	4f/	.
=63-	=63-	=63-	=63-	=63-	=63-	=63-	=63-
2C/	-ia	1A	-ia	2r	.	2e/	-ia
*	*	*	*	*	*	*	*ij
2D/	Al-	.	.	2f\	Al-	2a\	Al-
2C#X/	-le-	2r	.	2e\	-le-	2a\	-le-
1D\	-lu-	2F/	Al-	1f\	-lu-	2a\	-lu-
=64-	=64-	=64-	=64-	=64-	=64-	=64-	=64-
.	.	2D/	-le-	.	.	1.a	-ia
*	*	*	*	*	*	*	*Xij
4Cny/	.	2E/	-lu-	4e\	.	.	.
4BB/	.	.	.	4d\	.	.	.
!LO:SIC:v:t=custos BB-	!	!	!	!	!	!	!
2AA/	-ia	0.F	-ia	2c/	-ia	.	.
*xywh-#163:1164,4559,3385,573	*	*	*	*	*	*	*
!LO:LB:g=original	!	!	!	!	!	!	!
*	*Xij	*	*Xij	*	*ij	*	*
2BB-X/	Al-	.	.	2d\	Al-	2f/	Al-
=65-	=65-	=65-	=65-	=65-	=65-	=65-	=65-
2AA/	-le-	.	.	2c/	-le-	2f/	-le-
1BB-X	-lu-	.	.	1d	-lu-	2f/	-lu-
.	.	.	.	.	.	2.f/	-ia
4AA/	.	.	.	4c/	.	.	.
4GG/	.	.	.	4B/	.	4g/	.
=66-	=66-	=66-	=66-	=66-	=66-	=66-	=66-
2.FF/	.	2r	.	2A/	-ia	4a\	.
.	.	.	.	.	.	4b\	.
.	.	2F/	Al-	2A/	Al-	1cc	.
4GG/	.	.	.	.	.	.	.
0.AA	.	2E/	-le-	2.c/	-le-	.	.
*	*	*	*	*	*	*	*ij
.	.	1F/	-lu-	.	.	2a\	Al-
.	.	.	.	4B/	.	.	.
=67-	=67-	=67-	=67-	=67-	=67-	=67-	=67-
.	.	.	.	2c#X/	.	1.a	-le-
.	.	4E/	.	1d	-lu-	.	.
.	.	4D/	.	.	.	.	.
.	.	1E	.	.	.	.	.
.	.	.	.	2c#X/	.	2e/	-lu-
=68-	=68-	=68-	=68-	=68-	=68-	=68-	=68-
0D	-ia.	0D	-ia.	0d	-ia	0f#X	-ia
*	*	*	*	*	*Xij	*	*Xij
=-	=-	=-	=-	=-	=-	=-	=-
*-	*-	*-	*-	*-	*-	*-	*-
!!!system-decoration: [(s1,s2,s3,s4)]
!!!ENC: Mateusz Solarz
!!!END: 2022-06-30
!!!ENC: Julita Ruszuk
!!!END: 2022-07-04
!!!ENC-iiif: Lidia Bialucha
!!!END-iiif: 2022-09-04
